components/icons/foodIcon/CAFE_AND_DESSERT.svg

<svg width="32" height="32" viewBox="0 0 32 32" fill="none" xmlns="http://www.w3.org/2000/svg">
<path d="M32 16C32 24.84 24.84 32 16 32C7.16 32 0 24.84 0 16C0 7.16 7.16 0 16 0C24.84 0 32 7.16 32 16Z" fill="#62CAD1"/>
<path opacity="0.25" d="M17.79 31.8197C18.27 31.7697 18.76 31.7697 19.22 31.6797C21.27 31.2597 23.21 30.4397 24.94 29.2697C25.79 28.6897 26.58 28.0397 27.31 27.3097C29.53 25.0997 31.04 22.2897 31.67 19.2197C31.77 18.7297 31.77 18.2097 31.82 17.7097L25.85 11.7397C25.85 11.7397 25.78 11.6797 25.75 11.6497C25.6 11.5197 25.43 11.3997 25.25 11.3097C25.18 11.2797 25.12 11.2597 25.05 11.2397L23.4 9.58974C23.34 9.52974 23.26 9.48975 23.17 9.48975H8.99997C8.82997 9.48975 8.74997 9.56975 8.74997 9.73975C8.51997 13.9397 9.22997 17.9797 11.98 21.2697C12.16 21.4897 12.36 21.6997 12.56 21.9197H8.66997C8.48997 21.9297 8.34997 22.0697 8.33997 22.2497C8.33997 22.3297 8.37997 22.4197 8.43997 22.4797L17.78 31.8197H17.79Z" fill="black"/>
<path d="M9.01999 9.48975C8.84999 9.48975 8.76999 9.56975 8.76999 9.73975C8.51999 14.2097 9.34999 18.5197 12.58 21.9197H8.68999C8.50999 21.9297 8.36999 22.0697 8.35999 22.2497C8.35999 22.4197 8.52999 22.5797 8.68999 22.5797H23.44C23.62 22.5697 23.76 22.4297 23.77 22.2497C23.76 22.0697 23.62 21.9297 23.44 21.9197H19.38C20.37 20.6797 21.2 19.4297 21.87 17.9397C22.86 17.6897 23.86 17.3597 24.69 16.6997C25.6 15.9597 26.18 14.7897 26.35 13.0497C26.43 12.2197 25.94 11.6397 25.27 11.3097C24.94 11.1397 24.57 11.0597 24.19 11.0597H23.44C23.44 10.6497 23.52 10.2297 23.52 9.81974C23.51 9.63974 23.37 9.49975 23.19 9.48975H9.01999ZM19.79 17.9397H19.96C20.13 17.9397 20.21 18.1097 20.21 18.2697C20.29 19.4297 19.71 20.5097 18.72 20.9997C18.55 21.0797 18.39 20.9997 18.31 20.9197C18.23 20.7497 18.31 20.5097 18.39 20.4197C19.14 20.0097 19.63 19.1797 19.55 18.2697C19.55 18.1897 19.63 18.0197 19.8 17.9397H19.79Z" fill="white"/>
</svg>

<svg xmlns="http://www.w3.org/2000/svg" width="48" height="48" viewBox="0 0 32 32" version="1" id="food">
  <path fill="#24c4bc" d="M32 16c0 8.836-7.164 16-16 16S0 24.836 0 16 7.164 0 16 0s16 7.164 16 16z"></path>
  <path d="M17.793 31.82c.476-.053.97-.05 1.432-.144a15.887 15.887 0 0 0 5.72-2.408 16.083 16.083 0 0 0 2.367-1.956 15.953 15.953 0 0 0 4.363-8.088c.1-.488.099-1.009.153-1.513l-5.967-5.967c-.031-.031-.07-.056-.103-.086a2.45 2.45 0 0 0-.5-.34c-.065-.032-.133-.046-.197-.072L23.414 9.6a.334.334 0 0 0-.228-.104H9.1l-.084-.084c-.166 0-.248.166-.248.332-.233 4.195.481 8.244 3.234 11.533.183.22.376.434.578.647H8.686a.358.358 0 0 0-.332.332c0 .083.04.166.103.228l9.336 9.336z" opacity=".25"></path>
  <path fill="#fff" d="M9.016 9.412c-.166 0-.249.166-.249.332-.248 4.474.58 8.783 3.812 12.18H8.685a.356.356 0 0 0-.332.332c0 .166.166.332.332.332h14.75a.356.356 0 0 0 .33-.332.356.356 0 0 0-.33-.331h-4.061c.994-1.243 1.823-2.486 2.486-3.978.994-.248 1.989-.58 2.817-1.243.912-.745 1.492-1.906 1.657-3.646.083-.828-.414-1.408-1.077-1.74a2.294 2.294 0 0 0-1.077-.248h-.746c0-.415.083-.829.083-1.243a.356.356 0 0 0-.331-.332H9.016v-.083zm10.772 8.535h.166c.166 0 .249.166.249.332.082 1.16-.498 2.237-1.492 2.734-.166.083-.331 0-.414-.083-.083-.165 0-.414.083-.497.745-.414 1.243-1.243 1.16-2.154 0-.083.083-.249.248-.332z"></path>
</svg>
